X: 86
T:Lad O'Beirne [DeZarn]
M:C|
L:1/8
S:After Joe DeZarn
R:Reel
K:G
DG~G2 DG~G2|BcAB GE~E2|DG~G2 BABd|egdg edge|!
dB~B2 GB~B2|cE~E2 EDB,E|DEGA BAGA|1BdAc BGGE:|2BdAc BGGA|!
|:Bd~d2 Bd~d2|egdg edge|dB~B2 GB~B2|cE~E2 EDB,E|!
Bd~d2 d2ef|g2fa gedB|DEGA BAGA|1BdAc BGGA:|2BdAc BGGE:|]!
